X:0002
M:2/4
L:1/16
Q:1/4=89
K:G
g2d2 d2c2|(BcdB) G2D2 |G2B2 (ABcd)| B2``G2  G2d2|
e2c2 c2e2| d2B2  B2d2 |g2d2  c2B2 | B4      A4 :|
e2a2 a2g2|(gfed) g2c2 |B2AG  A2D2 | G2``G2  G4 :|

